assets/img/icons/logo_pult.svg

<svg width="57" height="30" viewBox="0 0 57 30" fill="none" xmlns="http://www.w3.org/2000/svg">
<path d="M28.7236 26.1845L40.2196 29.9806V0L28.7236 3.79599V26.1845Z" fill="#4CC7E9"/>
<path d="M0 11.4045H1.97119V12.5298C2.20755 12.1343 2.54072 11.8074 2.93837 11.5808C3.336 11.3543 3.78465 11.2357 4.24078 11.2368C5.98028 11.2368 7.32191 12.5466 7.32191 14.9151V15.0328C7.32191 17.4008 5.99686 18.7447 4.24078 18.7447C3.78728 18.7631 3.33722 18.6574 2.93789 18.4387C2.53854 18.22 2.20464 17.8963 1.97119 17.5016V21.0455H0V11.4045ZM5.31716 15.0492V14.9315C5.31716 13.4703 4.60669 12.7648 3.6274 12.7648C2.60116 12.7648 1.88791 13.4851 1.88791 14.9315V15.0492C1.88791 16.4935 2.5672 17.1991 3.6274 17.1991C4.72114 17.1819 5.31716 16.4431 5.31716 15.0492Z" fill="#343741"/>
<path d="M8.38165 16.0401V11.4045H10.3363V15.7548C10.3363 16.7289 10.7337 17.1991 11.5622 17.1991C12.3907 17.1991 13.0365 16.6789 13.0365 15.6203V11.4045H14.9911V18.5931H13.0531V17.4677C12.8411 17.88 12.515 18.2205 12.1147 18.4473C11.7144 18.6741 11.2574 18.7774 10.8 18.7443C9.40789 18.7443 8.38165 17.9211 8.38165 16.0401Z" fill="#343741"/>
<path d="M16.4985 8.14594H18.4532V18.5762H16.4985V8.14594Z" fill="#343741"/>
<path d="M20.2092 16.4599V12.8152H19.2982V11.4045H20.2092V9.85925H22.1639V11.4045H23.6546V12.8152H22.1639V16.275C22.1639 16.8461 22.4452 17.1315 22.9423 17.1315C23.1975 17.142 23.4518 17.0961 23.6878 16.997V18.5438C23.3041 18.676 22.9003 18.7385 22.495 18.7287C21.0211 18.7275 20.2092 17.9547 20.2092 16.4599Z" fill="#343741"/>
<path d="M45.3381 11.4044H47.3094V12.7816C47.4912 12.3246 47.8093 11.9366 48.2192 11.6717C48.6291 11.4068 49.1101 11.2781 49.5954 11.3036V13.151C48.1378 13.1342 47.3094 13.6212 47.3094 14.9983V18.5926H45.3381V11.4044Z" fill="#343741"/>
<path d="M50.3904 16.0401V11.4045H52.3451V15.7548C52.3451 16.7289 52.7426 17.1991 53.5706 17.1991C54.3987 17.1991 55.0448 16.6789 55.0448 15.6203V11.4045H56.9996V18.5931H55.0448V17.4677C54.8329 17.88 54.5068 18.2205 54.1065 18.4473C53.7062 18.6741 53.2493 18.7774 52.7918 18.7443C51.4168 18.7443 50.3904 17.9211 50.3904 16.0401Z" fill="#343741"/>
</svg>

<svg width="57" height="30" fill="none" xmlns="http://www.w3.org/2000/svg"><path d="M28.724 26.184l11.496 3.797V0L28.724 3.796v22.389z" fill="#4CC7E9"/><path d="M0 11.405h1.971v1.125c.237-.396.57-.723.967-.95a2.618 2.618 0 011.303-.343c1.74 0 3.08 1.31 3.08 3.678v.118c0 2.368-1.324 3.712-3.08 3.712a2.5 2.5 0 01-1.303-.306 2.544 2.544 0 01-.967-.937v3.544H0v-9.641zm5.317 3.644v-.117c0-1.462-.71-2.167-1.69-2.167-1.026 0-1.74.72-1.74 2.166v.118c0 1.445.68 2.15 1.74 2.15 1.094-.017 1.69-.756 1.69-2.15zm3.065.991v-4.635h1.954v4.35c0 .974.398 1.444 1.226 1.444.829 0 1.475-.52 1.475-1.579v-4.215h1.954v7.188h-1.938v-1.125a2.37 2.37 0 01-.938.98c-.4.226-.858.33-1.315.296-1.392 0-2.418-.823-2.418-2.704zm8.116-7.894h1.955v10.43H16.5V8.146zm3.712 8.314v-3.645h-.912v-1.41h.911V9.859h1.955v1.546h1.49v1.41h-1.49v3.46c0 .571.281.857.778.857.256.01.51-.036.746-.135v1.547a3.408 3.408 0 01-1.193.185c-1.474-.002-2.286-.774-2.286-2.27zm25.128-5.056h1.971v1.378c.182-.457.5-.845.91-1.11.41-.265.891-.394 1.376-.368v1.847c-1.457-.017-2.286.47-2.286 1.847v3.595h-1.97v-7.189zm5.052 4.636v-4.635h1.955v4.35c0 .974.398 1.444 1.226 1.444s1.474-.52 1.474-1.579v-4.215H57v7.188h-1.955v-1.125a2.37 2.37 0 01-.939.98c-.4.226-.857.33-1.314.296-1.375 0-2.402-.823-2.402-2.704z" fill="#343741"/></svg>
